src/icons/svgs/16/circle-check.svg

<svg width="16" height="16" viewBox="0 0 16 16" fill="none" xmlns="http://www.w3.org/2000/svg">
<path d="M8 1C4.13359 1 1 4.13359 1 8C1 11.8664 4.13359 15 8 15C11.8664 15 15 11.8664 15 8C15 4.13359 11.8664 1 8 1ZM11.1664 6.79141L7.66641 10.2914C7.51602 10.4418 7.32188 10.5156 7.125 10.5156C6.92812 10.5156 6.73289 10.4413 6.58332 10.2917L4.83332 8.54173C4.535 8.24259 4.535 7.75724 4.83332 7.4581C5.13246 7.15896 5.61781 7.15896 5.91695 7.4581L7.125 8.66719L10.0836 5.70859C10.3827 5.40945 10.8681 5.40945 11.1672 5.70859C11.4645 6.00664 11.4645 6.49336 11.1664 6.79141Z" fill="black"/>
</svg>

<svg width="16" height="16" viewBox="0 0 16 16" xmlns="http://www.w3.org/2000/svg">
    <path d="M8 1a7 7 0 0 0-7 7 7 7 0 0 0 7 7 7 7 0 0 0 7-7 7 7 0 0 0-7-7zm3.166 5.791-3.5 3.5a.76.76 0 0 1-.541.225.762.762 0 0 1-.542-.224l-1.75-1.75a.766.766 0 0 1 1.084-1.084l1.208 1.21 2.959-2.96a.766.766 0 0 1 1.082 1.083z"/>
</svg>
